X:4240
T:Don Messer's Breakdown
M:2/4
L:1/16
Q:100
R:Reel
K:C
GF|ECEG c2ea|g2ea gece|dcde fdBd|cBcA G2GF|!
ECEG c2ea|g2ea gece|dcde fdBd|cBcd c2:|!
GF|E2G2c2e2|g4 g4|{efg}a2g2f2e2|dedc BcBA|!
G2FG BGBd|g4 g4|{efg}a2g2 fdBd|cBcd c2:|
